school/img/country/KZ.svg

<svg width="13" height="12" viewBox="0 0 13 12" fill="none" xmlns="http://www.w3.org/2000/svg">
<rect width="13" height="12" rx="2" fill="white"/>
<mask id="mask0" mask-type="alpha" maskUnits="userSpaceOnUse" x="0" y="0" width="13" height="12">
<rect width="13" height="12" rx="2" fill="white"/>
</mask>
<g mask="url(#mask0)">
<rect width="13" height="12" fill="#30C6E0"/>
<path fill-rule="evenodd" clip-rule="evenodd" d="M6.49996 8.40001C7.52564 8.40001 8.35711 7.32549 8.35711 6.00001C8.35711 4.67452 7.52564 3.60001 6.49996 3.60001C5.47429 3.60001 4.64282 4.67452 4.64282 6.00001C4.64282 7.32549 5.47429 8.40001 6.49996 8.40001Z" fill="#FFCD4B"/>
<path fill-rule="evenodd" clip-rule="evenodd" d="M5.74235 10.2897L6.49998 8.82818L7.25761 10.2897L7.44952 8.5481L8.62281 9.44007L8.21099 7.76334L9.56756 7.9091L8.63357 6.62934L9.90474 6.00001L8.63357 5.37068L9.56756 4.09092L8.21099 4.23668L8.62281 2.55995L7.44952 3.45192L7.25761 1.71033L6.49998 3.17184L5.74235 1.71033L5.55044 3.45192L4.37714 2.55995L4.78897 4.23668L3.43239 4.09092L4.36638 5.37068L3.09521 6.00001L4.36638 6.62934L3.43239 7.9091L4.78897 7.76334L4.37714 9.44007L5.55044 8.5481L5.74235 10.2897ZM8.66666 6C8.66666 7.5464 7.69661 8.8 6.5 8.8C5.30338 8.8 4.33333 7.5464 4.33333 6C4.33333 4.4536 5.30338 3.2 6.5 3.2C7.69661 3.2 8.66666 4.4536 8.66666 6Z" fill="#FFCD4B"/>
<path fill-rule="evenodd" clip-rule="evenodd" d="M0.619019 1.10951C0.619019 0.938566 0.757597 0.799988 0.928542 0.799988C1.09949 0.799988 1.23807 0.938566 1.23807 1.10951V1.29046C1.23807 1.46141 1.09949 1.59999 0.928542 1.59999C0.757597 1.59999 0.619019 1.46141 0.619019 1.29046V1.10951ZM0.619019 2.70952C0.619019 2.53857 0.757597 2.39999 0.928542 2.39999C1.09949 2.39999 1.23807 2.53857 1.23807 2.70952V2.89047C1.23807 3.06141 1.09949 3.19999 0.928542 3.19999C0.757597 3.19999 0.619019 3.06141 0.619019 2.89047V2.70952ZM0.928542 3.99998C0.757597 3.99998 0.619019 4.13856 0.619019 4.30951V4.49046C0.619019 4.66141 0.757597 4.79998 0.928542 4.79998C1.09949 4.79998 1.23807 4.66141 1.23807 4.49046V4.30951C1.23807 4.13856 1.09949 3.99998 0.928542 3.99998ZM0.619019 5.90951C0.619019 5.73857 0.757597 5.59999 0.928542 5.59999C1.09949 5.59999 1.23807 5.73857 1.23807 5.90951V6.09047C1.23807 6.26141 1.09949 6.39999 0.928542 6.39999C0.757597 6.39999 0.619019 6.26141 0.619019 6.09047V5.90951ZM0.928542 7.19999C0.757597 7.19999 0.619019 7.33857 0.619019 7.50952V7.69047C0.619019 7.86141 0.757597 7.99999 0.928542 7.99999C1.09949 7.99999 1.23807 7.86141 1.23807 7.69047V7.50952C1.23807 7.33857 1.09949 7.19999 0.928542 7.19999ZM0.619019 9.10951C0.619019 8.93856 0.757597 8.79998 0.928542 8.79998C1.09949 8.79998 1.23807 8.93856 1.23807 9.10951V9.29046C1.23807 9.4614 1.09949 9.59998 0.928542 9.59998C0.757597 9.59998 0.619019 9.4614 0.619019 9.29046V9.10951ZM0.928542 10.4C0.757597 10.4 0.619019 10.5386 0.619019 10.7095V10.8905C0.619019 11.0614 0.757597 11.2 0.928542 11.2C1.09949 11.2 1.23807 11.0614 1.23807 10.8905V10.7095C1.23807 10.5386 1.09949 10.4 0.928542 10.4ZM1.23804 9.90952C1.23804 9.73857 1.37662 9.59999 1.54757 9.59999C1.71851 9.59999 1.85709 9.73857 1.85709 9.90952V10.0905C1.85709 10.2614 1.71851 10.4 1.54757 10.4C1.37662 10.4 1.23804 10.2614 1.23804 10.0905V9.90952ZM1.54757 7.99999C1.37662 7.99999 1.23804 8.13857 1.23804 8.30951V8.49046C1.23804 8.66141 1.37662 8.79999 1.54757 8.79999C1.71851 8.79999 1.85709 8.66141 1.85709 8.49046V8.30951C1.85709 8.13857 1.71851 7.99999 1.54757 7.99999ZM1.23804 6.70951C1.23804 6.53856 1.37662 6.39998 1.54757 6.39998C1.71851 6.39998 1.85709 6.53856 1.85709 6.70951V6.89046C1.85709 7.0614 1.71851 7.19998 1.54757 7.19998C1.37662 7.19998 1.23804 7.06141 1.23804 6.89046V6.70951ZM1.54757 4.79999C1.37662 4.79999 1.23804 4.93857 1.23804 5.10952V5.29047C1.23804 5.46141 1.37662 5.59999 1.54757 5.59999C1.71851 5.59999 1.85709 5.46141 1.85709 5.29047V5.10952C1.85709 4.93857 1.71851 4.79999 1.54757 4.79999ZM1.23804 3.50951C1.23804 3.33857 1.37662 3.19999 1.54757 3.19999C1.71851 3.19999 1.85709 3.33857 1.85709 3.50951V3.69046C1.85709 3.86141 1.71851 3.99999 1.54757 3.99999C1.37662 3.99999 1.23804 3.86141 1.23804 3.69046V3.50951ZM1.54757 1.59998C1.37662 1.59998 1.23804 1.73856 1.23804 1.90951V2.09046C1.23804 2.2614 1.37662 2.39998 1.54757 2.39998C1.71851 2.39998 1.85709 2.2614 1.85709 2.09046V1.90951C1.85709 1.73856 1.71851 1.59998 1.54757 1.59998Z" fill="#FFCD4B"/>
</g>
</svg>

<svg width="13" height="12" fill="none" xmlns="http://www.w3.org/2000/svg"><rect width="13" height="12" rx="2" fill="#fff"/><mask id="a" maskUnits="userSpaceOnUse" x="0" y="0" width="13" height="12"><rect width="13" height="12" rx="2" fill="#fff"/></mask><g mask="url(#a)"><path fill="#30C6E0" d="M0 0h13v12H0z"/><path fill-rule="evenodd" clip-rule="evenodd" d="M6.5 8.4c1.026 0 1.857-1.075 1.857-2.4S7.526 3.6 6.5 3.6 4.643 4.675 4.643 6 5.474 8.4 6.5 8.4z" fill="#FFCD4B"/><path fill-rule="evenodd" clip-rule="evenodd" d="M5.742 10.29L6.5 8.828l.758 1.462.192-1.742 1.173.892-.412-1.677 1.357.146-.934-1.28L9.904 6l-1.27-.63.934-1.28-1.357.147.412-1.677-1.173.892-.192-1.742L6.5 3.172 5.742 1.71 5.55 3.452 4.377 2.56l.412 1.677-1.357-.146.934 1.28L3.096 6l1.27.63-.934 1.28 1.357-.147-.412 1.677 1.173-.892.192 1.742zM8.667 6c0 1.546-.97 2.8-2.167 2.8-1.197 0-2.167-1.254-2.167-2.8 0-1.546.97-2.8 2.167-2.8 1.197 0 2.167 1.254 2.167 2.8zM.619 1.11a.31.31 0 01.62 0v.18a.31.31 0 11-.62 0v-.18zm0 1.6a.31.31 0 11.62 0v.18a.31.31 0 01-.62 0v-.18zM.929 4a.31.31 0 00-.31.31v.18a.31.31 0 10.62 0v-.18A.31.31 0 00.928 4zm-.31 1.91a.31.31 0 01.62 0v.18a.31.31 0 01-.62 0v-.18zm.31 1.29a.31.31 0 00-.31.31v.18a.31.31 0 00.62 0v-.18a.31.31 0 00-.31-.31zm-.31 1.91a.31.31 0 11.62 0v.18a.31.31 0 01-.62 0v-.18zm.31 1.29a.31.31 0 00-.31.31v.18a.31.31 0 00.62 0v-.18a.31.31 0 00-.31-.31zm.309-.49a.31.31 0 11.62 0v.18a.31.31 0 01-.62 0v-.18zM1.548 8a.31.31 0 00-.31.31v.18a.31.31 0 10.62 0v-.18a.31.31 0 00-.31-.31zm-.31-1.29a.31.31 0 11.62 0v.18a.31.31 0 01-.62 0v-.18zm.31-1.91a.31.31 0 00-.31.31v.18a.31.31 0 00.62 0v-.18a.31.31 0 00-.31-.31zm-.31-1.29a.31.31 0 01.62 0v.18a.31.31 0 11-.62 0v-.18zm.31-1.91a.31.31 0 00-.31.31v.18a.31.31 0 00.62 0v-.18a.31.31 0 00-.31-.31z" fill="#FFCD4B"/></g></svg>
